X:1
T:Title
%%score { ( 1 3 ) | ( 2 4 ) }
L:1/8
Q:1/4=100
M:4/4
K:Ab
V:1 treble nm="Grand Piano"
V:3 treble 
V:2 bass 
V:4 bass 
V:1
 [CE]4 [CF]2 [EA]2 | G6 F2 | E2 G2 B2 c2 | [DB]4 [CA]2 z2 | [Fd]4 [A,DF]2 [A,DA]2 | [Ec]4 [CEA]4 | %6
w: Geo.~C.~Stebbins * *||||||
 [B,=DA]2 [A,DF]2 [G,DG]2 [DA]2 | [EB]6 z2 | [CE]4 [CF]2 [EA]2 | G6 F2 | E2 G2 [GB]2 [Gd]2 | %11
w: |||||
 d4 c2 z2 | e4 c2 [A,EA]2 | [A,DF]2 [B,EG]2 [A,EA]2 [DFB]2 | [EG-]4 [DG]2 [CA]2 | [CA]6 z2 | %16
w: |||||
 c4 d2 c2 | e4 [GB]4 | [Ed]4 [DG]3 [CA] | [CE]6 z2 | [CA]4 B2 c2 | e4 z4 | G2 G2 A3 B | [CA]6 z2 |] %24
w: ||||||||
V:2
 [A,,A,]4 [A,,A,]2 [C,A,]2 | [E,B,D]6 [E,A,D]2 | [E,G,D]2 [E,B,D]2 [E,G,D]2 [E,G,E]2 | %3
 [A,,A,]4 [A,,A,]2 z2 | [D,A,]4 D,2 F,2 | A,4 A,,4 | B,,2 B,,2 B,,2 [B,,F,]2 | [E,G,]6 z2 | %8
 [A,,A,]4 [A,,A,]2 [C,A,]2 | [E,B,D]6 [F,B,D]2 | [G,B,D]2 [E,B,E]2 [E,D]2 [E,B,]2 | %11
 [A,F]4 [A,E]2 z2 | [A,CE]4 [E,A,E]2 C,2 | D,2 B,,2 C,2 D,2 | z2 C2 B,2 [A,,A,]2 | [A,,A,]6 z2 | %16
 [A,E]4 [A,F]2 [A,EA]2 | [B,DG]4[K:bass] [E,D]4 | [E,B,]4 [E,B,]3 [A,,A,] | [A,,A,]6 z2 | %20
 [A,,A,]4 [E,G,D]2[K:treble] [A,E]2 | A2 z2[K:bass] [D,D]4 | [E,B,E]2 [E,B,D]2 [E,A,C]3 [E,G,D] | %23
 [A,,A,]6 z2 |] %24
V:3
 x8 | x8 | x8 | x8 | x8 | x8 | x8 | x8 | x8 | x8 | x8 | x8 | x8 | x8 | B,2 z2 z4 | x8 | x8 | x8 | %18
 x8 | x8 | x8 | z2 _G2 [Fd]4 | x8 | x8 |] %24
V:4
 x8 | x8 | x8 | x8 | x8 | x8 | x8 | x8 | x8 | x8 | x8 | x8 | x8 | x8 | E,6 z2 | x8 | x8 | %17
 x4[K:bass] x4 | x8 | x8 | x6[K:treble] x2 | [A,C]4[K:bass] z4 | x8 | x8 |] %24

